!!!COM: Schiørring, Niels
!!!CDT: 1743-1798
!!!OPR@@DA: Choral-Bog
!!!ONM: 90
!!!OTL@@DA: See Solens ſkiønne Lys og Pragt
**kern	**fb	**kern	**kern	**kern	**kern	**kern	**kern	**kern
*part6	*part6	*part6	*part5	*part5	*part4	*part3	*part2	*part1
*staff8	*	*staff7	*staff6	*staff5	*staff4	*staff3	*staff2	*staff1
*clefF4	*	*clefC1	*clefF4	*clefC1	*clefF4	*clefC4	*clefC3	*clefC1
*k[f#]	*	*k[f#]	*k[f#]	*k[f#]	*k[f#]	*k[f#]	*k[f#]	*k[f#]
*G:	*	*G:	*G:	*G:	*G:	*G:	*G:	*G:
*M4/4	*	*M4/4	*M4/4	*M4/4	*M4/4	*M4/4	*M4/4	*M4/4
*met(c)	*	*met(c)	*met(c)	*met(c)	*met(c)	*met(c)	*met(c)	*met(c)
*MM180	*	*MM180	*MM180	*MM180	*MM180	*MM180	*MM180	*MM180
*	*	*	*^	*^	*	*	*	*
2GG	.	2d	2G	2GG	2d	2B	2GG	2B	2d	2d
=1	=1	=1	=1	=1	=1	=1	=1	=1	=1	=1
2BB	6	2g	2G	2BB	2g	2d	2BB	2B	2d	2g
2GG	.	2b	2ryy@	2GG	2d	[2g	2GG	2d	[2g	2b
=2	=2	=2	=2	=2	=2	=2	=2	=2	=2	=2
2D	4	2a	1ryy	2D	2d	4g]	2D	2d	(4g]	2a
*	*	*	*	*	*	*	*^	*	*	*
2FF#	5	2cc	.	2FF#	2d	2a	2F#	2FF#	2d	2a	2cc
=3	=3	=3	=3	=3	=3	=3	=3	=3	=3	=3	=3
2GG	.	2b	2ryy@	2GG	2d	2g	2G	2GG	2d	2g	2b
*	*	*	*	*	*	*	*v	*v	*	*	*
2C	8 6	(4a	4c	2C	4a	2e	2C	(4c	2e	(4a
.	7 5	4g)	4B	.	4g	.	.	4B)	.	4g)
=4	=4	=4	=4	=4	=4	=4	=4	=4	=4	=4
2D	.	2f#	2A	2D	2f#	2d	2D	2A	2d	2f#
2BB	nr5	2dd	2ryy@	2BB	2fn	2g	2BB	2G	2fn	2dd
=5	=5	=5	=5	=5	=5	=5	=5	=5	=5	=5
2C	.	2cc	1ryy	2C	2e	2g	2C	2G	2e	2cc
2C#X	7 5	2b	.	2C#X	2e	2g	2C#X	2G	2e	2b
=6	=6	=6	=6	=6	=6	=6	=6	=6	=6	=6
2D	.	2a	2A	2D	2a	2f#	2D	2F#	2f#	2a
4E	6	2ccni	4e	4E	2ccni	4g	(4E	(4G	(4e	2cc
4F#	5	.	4d	4F#	.	4a	4F#)	4A)	4d)	.
=7	=7	=7	=7	=7	=7	=7	=7	=7	=7	=7
2G	9 4	(2cc	1d	1G	2cc	2a	2G	(2A	1d	(2cc
2GG	8 3	2b)	.	.	2b	2g	2GG	2G)	.	2b)
=	=	=	=	=	=	=	=	=	=	=
2D	.	2a	2d	2D	2a	2f#	2D	2F#	2d	2a
=8:|!	=8:|!	=8:|!	=8:|!	=8:|!	=8:|!	=8:|!	=8:|!	=8:|!	=8:|!	=8:|!
2D	.	2a	2ryy	2D	2d	2f#	2D	2d	2f#	2a
=9	=9	=9	=9	=9	=9	=9	=9	=9	=9	=9
2C	2	2a	1ryy	2C	2d	2f#	2C	2d	2f#	2a
2BB	6	2b	.	2BB	2d	2g#X	2BB	2d	2g#X	2b
=10	=10	=10	=10	=10	=10	=10	=10	=10	=10	=10
2AA	.	2cc	2ryy@	2AA	2e	2.a	2AA	2e	[2a	2cc
2E	4	2b	4e	2E	2b	.	2E	(4e	(4a]	2b
=11	=11	=11	=11	=11	=11	=11	=11	=11	=11	=11
2A	#	2a	2c	2A	2a	2e	2A	2c	2a	2a
2BB	6	2dd	2ryy@	2BB	2d	2gni	2BB	2d	2gni	2dd
=12	=12	=12	=12	=12	=12	=12	=12	=12	=12	=12
*	*	*	*	*	*	*^	*	*	*	*
2C	.	2ee	2c	2C	2ee	2cc	2g\	2C	2c	2g	2ee
*	*	*	*	*	*	*v	*v	*	*	*	*
2D	.	2dd	2ryy@	2D	2f#	2a	2D	2A	2f#	2dd
=13	=13	=13	=13	=13	=13	=13	=13	=13	=13	=13
2E	7	(2dd	2e	2E	2dd	2g	2E	2G	2g	2dd
2F#	5	2cc)	2d	2F#	2cc	2a	2F#	2d	2a	2cc
=14	=14	=14	=14	=14	=14	=14	=14	=14	=14	=14
2G	.	2b	2d	2G	2b	2g	2G	2d	2g	2b
2G	.	2b	2B	2G	2b	[2d	2G	2B	[2d	2b
=15	=15	=15	=15	=15	=15	=15	=15	=15	=15	=15
2G#X	5	2e	2B	2G#X	2e	2d]	2G#X	2B	2d]	2e
2Gn	4	2e	2A	2Gn	2e	2c#X	2Gn	2A	2c#X	2e
=16	=16	=16	=16	=16	=16	=16	=16	=16	=16	=16
2F#	6	2a	2A	2F#	2a	1d	2F#	2A	2d	2a
2B	6	2g	2d	2B	2g	.	2B	2d	2d	2g
=17	=17	=17	=17	=17	=17	=17	=17	=17	=17	=17
2A	6 4	2f#	2A	2A	2f#	2d	2A	2A	2d	2f#
2AA	5 #	2e	2G	2AA	2e	2c#X	2AA	2G	2c#X	2e
=18	=18	=18	=18	=18	=18	=18	=18	=18	=18	=18
2D	.	2d	2F#	2D	2d	2A	2D	2F#	2d	2d
2BB	.	2dd	2ryy@	2BB	2d	2f#	2BB	2d	2f#	2dd
=19	=19	=19	=19	=19	=19	=19	=19	=19	=19	=19
2E	7 #	2dd	1ryy	2E	2e	2g#X	2E	2e	2g#X	2dd
2AA	.	2cc	.	2AA	2e	2a	2AA	2e	2a	2cc
=20	=20	=20	=20	=20	=20	=20	=20	=20	=20	=20
2D	7	2cc	1ryy	2D	2d	2f#	2D	2d	2f#	2cc
2G	.	2b	.	2Gni	2d	[2gni	2G	2d	[2gni	2b
=21	=21	=21	=21	=21	=21	=21	=21	=21	=21	=21
2C	6 5	2a	2ryy@	2C	2e	2g]	2C	2e	2g]	2a
2D	.	2a	4d	2D	2a	2f#	2D	(4d	2f#	2a
.	.	.	4c	.	.	.	.	4c)	.	.
=22	=22	=22	=22	=22	=22	=22	=22	=22	=22	=22
2GG	.	2g	2ryy	2GG	2B	2d	2GG	2B	2g	2g
*	*	*	*v	*v	*	*	*	*	*	*
*	*	*	*	*v	*v	*	*	*	*
==	==	==	==	==	==	==	==	==
*-	*-	*-	*-	*-	*-	*-	*-	*-
!!!system-decoration: {(s1,s2,s3,s4)}{(s5,s6)}{(s7,s8)}
!!!RDF**kern: i = editorial accidental
!!!AGN: chorale
!!!EED: Derek Remeš
!!!EED2: Victor Phan
!!!END: 2023/11/28
!!!ENC: Wolfgang Drescher
!!!EEV: 2023/11/29
!!!title: @{ONM}. @{OTL}